X: 26215
T: Meanwhile
R: waltz
M: 3/4
K: Gmajor
|:g2ed eg|B2AG EG|A2AG de|d2BA Gd|
g2ed eg|B2AG dg|a2gb ad|1 e2BA Gd:|2 e2BA GA||
|:B2BG dB|A2AG de|D2G2FG|ED EG A2|
B2BG dB|e2 fB gB|a2 gb ad|1 e2 BA GA:|2 e2 BA G2||

